public/flags/US.svg

<svg fill="none" height="53" viewBox="0 0 61 53" width="61" xmlns="http://www.w3.org/2000/svg" xmlns:xlink="http://www.w3.org/1999/xlink"><filter id="a" color-interpolation-filters="sRGB" filterUnits="userSpaceOnUse" height="16.288" width="19.6667" x="3.80957" y="5.83337"><feFlood flood-opacity="0" result="BackgroundImageFix"/><feColorMatrix in="SourceAlpha" type="matrix" values="0 0 0 0 0 0 0 0 0 0 0 0 0 0 0 0 0 0 127 0"/><feOffset dy="2.12143"/><feColorMatrix type="matrix" values="0 0 0 0 0 0 0 0 0 0 0 0 0 0 0 0 0 0 0.06 0"/><feBlend in2="BackgroundImageFix" mode="normal" result="effect1_dropShadow"/><feBlend in="SourceGraphic" in2="effect1_dropShadow" mode="normal" result="shape"/></filter><linearGradient id="b" gradientUnits="userSpaceOnUse" x1="3.80957" x2="3.80957" y1="5.83337" y2="20"><stop offset="0" stop-color="#fff"/><stop offset="1" stop-color="#f0f0f0"/></linearGradient><mask id="c" height="43" maskUnits="userSpaceOnUse" width="59" x="1" y="3"><rect fill="#fff" height="42.5" rx="4.24286" width="59" x="1" y="3"/></mask><rect fill="#fff" height="42.5" rx="4.24286" width="59" x="1" y="3"/><g mask="url(#c)"><path clip-rule="evenodd" d="m60 3h-59v2.83333h59zm0 5.66664h-59v2.83336h59zm-59 5.66666h59v2.8333h-59zm59 5.6667h-59v2.8334h59zm-59 5.6667h59v2.8333h-59zm59 5.6666h-59v2.8334h59zm-59 5.6667h59v2.8333h-59zm59 5.6667h-59v2.8334h59z" fill="#d02f44" fill-rule="evenodd"/><path d="m1 3h25.2857v19.8333h-25.2857z" fill="#46467f"/><g filter="url(#a)"><path clip-rule="evenodd" d="m6.61909 7.25004c0 .7824-.62893 1.41667-1.40476 1.41667s-1.40476-.63427-1.40476-1.41667.62893-1.41667 1.40476-1.41667 1.40476.63427 1.40476 1.41667zm5.61901.00001c0 .7824-.6289 1.41666-1.4047 1.41666s-1.40477-.63426-1.40477-1.41666c0-.78241.62897-1.41667 1.40477-1.41667s1.4047.63426 1.4047 1.41667zm4.2143 1.41666c.7759 0 1.4048-.63426 1.4048-1.41666 0-.78241-.6289-1.41667-1.4048-1.41667-.7758 0-1.4047.63426-1.4047 1.41667 0 .7824.6289 1.41666 1.4047 1.41666zm7.0238-1.41666c0 .7824-.6289 1.41666-1.4047 1.41666-.7759 0-1.4048-.63426-1.4048-1.41666 0-.78241.6289-1.41667 1.4048-1.41667.7758 0 1.4047.63426 1.4047 1.41667zm-15.45234 4.24995c.77583 0 1.40476-.6342 1.40476-1.4166 0-.78244-.62893-1.4167-1.40476-1.4167s-1.40476.63426-1.40476 1.4167c0 .7824.62893 1.4166 1.40476 1.4166zm7.02384-1.4166c0 .7824-.629 1.4166-1.4048 1.4166s-1.4047-.6342-1.4047-1.4166c0-.78244.6289-1.4167 1.4047-1.4167s1.4048.63426 1.4048 1.4167zm4.2143 1.4166c.7758 0 1.4047-.6342 1.4047-1.4166 0-.78244-.6289-1.4167-1.4047-1.4167-.7759 0-1.4048.63426-1.4048 1.4167 0 .7824.6289 1.4166 1.4048 1.4166zm4.2142 1.4167c0 .7824-.6289 1.4167-1.4047 1.4167-.7759 0-1.4048-.6343-1.4048-1.4167s.6289-1.4167 1.4048-1.4167c.7758 0 1.4047.6343 1.4047 1.4167zm-7.0238 1.4167c.7759 0 1.4048-.6343 1.4048-1.4167s-.6289-1.4167-1.4048-1.4167c-.7758 0-1.4047.6343-1.4047 1.4167s.6289 1.4167 1.4047 1.4167zm-4.2143-1.4167c0 .7824-.6289 1.4167-1.4047 1.4167s-1.40477-.6343-1.40477-1.4167.62897-1.4167 1.40477-1.4167 1.4047.6343 1.4047 1.4167zm-7.02377 1.4167c.77583 0 1.40477-.6343 1.40477-1.4167s-.62894-1.4167-1.40477-1.4167c-.77582 0-1.40476.6343-1.40476 1.4167s.62894 1.4167 1.40476 1.4167zm4.21429 1.4166c0 .7824-.62893 1.4167-1.40476 1.4167s-1.40476-.6343-1.40476-1.4167.62893-1.4167 1.40476-1.4167 1.40476.6343 1.40476 1.4167zm4.21428 1.4167c.7758 0 1.4048-.6343 1.4048-1.4167s-.629-1.4167-1.4048-1.4167-1.4047.6343-1.4047 1.4167.6289 1.4167 1.4047 1.4167zm7.0238-1.4167c0 .7824-.6289 1.4167-1.4047 1.4167-.7759 0-1.4048-.6343-1.4048-1.4167s.6289-1.4167 1.4048-1.4167c.7758 0 1.4047.6343 1.4047 1.4167zm1.4048 4.25c.7758 0 1.4047-.6343 1.4047-1.4167s-.6289-1.4166-1.4047-1.4166c-.7759 0-1.4048.6342-1.4048 1.4166s.6289 1.4167 1.4048 1.4167zm-4.2143-1.4167c0 .7824-.6289 1.4167-1.4048 1.4167-.7758 0-1.4047-.6343-1.4047-1.4167s.6289-1.4166 1.4047-1.4166c.7759 0 1.4048.6342 1.4048 1.4166zm-7.0238 1.4167c.7758 0 1.4047-.6343 1.4047-1.4167s-.6289-1.4166-1.4047-1.4166-1.40477.6342-1.40477 1.4166.62897 1.4167 1.40477 1.4167zm-4.2143-1.4167c0 .7824-.62894 1.4167-1.40477 1.4167-.77582 0-1.40476-.6343-1.40476-1.4167s.62894-1.4166 1.40476-1.4166c.77583 0 1.40477.6342 1.40477 1.4166z" fill="url(#b)" fill-rule="evenodd"/></g></g></svg>

<svg width="61" height="53" viewBox="0 0 61 53" fill="none" xmlns="http://www.w3.org/2000/svg">
<rect x="1" y="3" width="59" height="42.5" rx="4.24286" fill="white"/>
<mask id="mask0" mask-type="alpha" maskUnits="userSpaceOnUse" x="1" y="3" width="59" height="43">
<rect x="1" y="3" width="59" height="42.5" rx="4.24286" fill="white"/>
</mask>
<g mask="url(#mask0)">
<path fill-rule="evenodd" clip-rule="evenodd" d="M60 3H1V5.83333H60V3ZM60 8.66664H1V11.5H60V8.66664ZM1 14.3333H60V17.1666H1V14.3333ZM60 20H1V22.8334H60V20ZM1 25.6667H60V28.5H1V25.6667ZM60 31.3333H1V34.1667H60V31.3333ZM1 37H60V39.8333H1V37ZM60 42.6667H1V45.5001H60V42.6667Z" fill="#D02F44"/>
<rect x="1" y="3" width="25.2857" height="19.8333" fill="#46467F"/>
<g filter="url(#filter0_d)">
<path fill-rule="evenodd" clip-rule="evenodd" d="M6.61909 7.25004C6.61909 8.03244 5.99016 8.66671 5.21433 8.66671C4.4385 8.66671 3.80957 8.03244 3.80957 7.25004C3.80957 6.46764 4.4385 5.83337 5.21433 5.83337C5.99016 5.83337 6.61909 6.46764 6.61909 7.25004ZM12.2381 7.25005C12.2381 8.03245 11.6092 8.66671 10.8334 8.66671C10.0576 8.66671 9.42863 8.03245 9.42863 7.25005C9.42863 6.46764 10.0576 5.83338 10.8334 5.83338C11.6092 5.83338 12.2381 6.46764 12.2381 7.25005ZM16.4524 8.66671C17.2283 8.66671 17.8572 8.03245 17.8572 7.25005C17.8572 6.46764 17.2283 5.83338 16.4524 5.83338C15.6766 5.83338 15.0477 6.46764 15.0477 7.25005C15.0477 8.03245 15.6766 8.66671 16.4524 8.66671ZM23.4762 7.25005C23.4762 8.03245 22.8473 8.66671 22.0715 8.66671C21.2956 8.66671 20.6667 8.03245 20.6667 7.25005C20.6667 6.46764 21.2956 5.83338 22.0715 5.83338C22.8473 5.83338 23.4762 6.46764 23.4762 7.25005ZM8.02386 11.5C8.79969 11.5 9.42862 10.8658 9.42862 10.0834C9.42862 9.30096 8.79969 8.6667 8.02386 8.6667C7.24803 8.6667 6.6191 9.30096 6.6191 10.0834C6.6191 10.8658 7.24803 11.5 8.02386 11.5ZM15.0477 10.0834C15.0477 10.8658 14.4187 11.5 13.6429 11.5C12.8671 11.5 12.2382 10.8658 12.2382 10.0834C12.2382 9.30096 12.8671 8.6667 13.6429 8.6667C14.4187 8.6667 15.0477 9.30096 15.0477 10.0834ZM19.262 11.5C20.0378 11.5 20.6667 10.8658 20.6667 10.0834C20.6667 9.30096 20.0378 8.6667 19.262 8.6667C18.4861 8.6667 17.8572 9.30096 17.8572 10.0834C17.8572 10.8658 18.4861 11.5 19.262 11.5ZM23.4762 12.9167C23.4762 13.6991 22.8473 14.3334 22.0715 14.3334C21.2956 14.3334 20.6667 13.6991 20.6667 12.9167C20.6667 12.1343 21.2956 11.5 22.0715 11.5C22.8473 11.5 23.4762 12.1343 23.4762 12.9167ZM16.4524 14.3334C17.2283 14.3334 17.8572 13.6991 17.8572 12.9167C17.8572 12.1343 17.2283 11.5 16.4524 11.5C15.6766 11.5 15.0477 12.1343 15.0477 12.9167C15.0477 13.6991 15.6766 14.3334 16.4524 14.3334ZM12.2381 12.9167C12.2381 13.6991 11.6092 14.3334 10.8334 14.3334C10.0576 14.3334 9.42863 13.6991 9.42863 12.9167C9.42863 12.1343 10.0576 11.5 10.8334 11.5C11.6092 11.5 12.2381 12.1343 12.2381 12.9167ZM5.21433 14.3334C5.99016 14.3334 6.6191 13.6991 6.6191 12.9167C6.6191 12.1343 5.99016 11.5 5.21433 11.5C4.43851 11.5 3.80957 12.1343 3.80957 12.9167C3.80957 13.6991 4.43851 14.3334 5.21433 14.3334ZM9.42862 15.75C9.42862 16.5324 8.79969 17.1667 8.02386 17.1667C7.24803 17.1667 6.6191 16.5324 6.6191 15.75C6.6191 14.9676 7.24803 14.3333 8.02386 14.3333C8.79969 14.3333 9.42862 14.9676 9.42862 15.75ZM13.6429 17.1667C14.4187 17.1667 15.0477 16.5324 15.0477 15.75C15.0477 14.9676 14.4187 14.3333 13.6429 14.3333C12.8671 14.3333 12.2382 14.9676 12.2382 15.75C12.2382 16.5324 12.8671 17.1667 13.6429 17.1667ZM20.6667 15.75C20.6667 16.5324 20.0378 17.1667 19.262 17.1667C18.4861 17.1667 17.8572 16.5324 17.8572 15.75C17.8572 14.9676 18.4861 14.3333 19.262 14.3333C20.0378 14.3333 20.6667 14.9676 20.6667 15.75ZM22.0715 20C22.8473 20 23.4762 19.3657 23.4762 18.5833C23.4762 17.8009 22.8473 17.1667 22.0715 17.1667C21.2956 17.1667 20.6667 17.8009 20.6667 18.5833C20.6667 19.3657 21.2956 20 22.0715 20ZM17.8572 18.5833C17.8572 19.3657 17.2283 20 16.4524 20C15.6766 20 15.0477 19.3657 15.0477 18.5833C15.0477 17.8009 15.6766 17.1667 16.4524 17.1667C17.2283 17.1667 17.8572 17.8009 17.8572 18.5833ZM10.8334 20C11.6092 20 12.2381 19.3657 12.2381 18.5833C12.2381 17.8009 11.6092 17.1667 10.8334 17.1667C10.0576 17.1667 9.42863 17.8009 9.42863 18.5833C9.42863 19.3657 10.0576 20 10.8334 20ZM6.6191 18.5833C6.6191 19.3657 5.99016 20 5.21433 20C4.43851 20 3.80957 19.3657 3.80957 18.5833C3.80957 17.8009 4.43851 17.1667 5.21433 17.1667C5.99016 17.1667 6.6191 17.8009 6.6191 18.5833Z" fill="url(#paint0_linear)"/>
</g>
</g>
<defs>
<filter id="filter0_d" x="3.80957" y="5.83337" width="19.6667" height="16.288" filterUnits="userSpaceOnUse" color-interpolation-filters="sRGB">
<feFlood flood-opacity="0" result="BackgroundImageFix"/>
<feColorMatrix in="SourceAlpha" type="matrix" values="0 0 0 0 0 0 0 0 0 0 0 0 0 0 0 0 0 0 127 0"/>
<feOffset dy="2.12143"/>
<feColorMatrix type="matrix" values="0 0 0 0 0 0 0 0 0 0 0 0 0 0 0 0 0 0 0.06 0"/>
<feBlend mode="normal" in2="BackgroundImageFix" result="effect1_dropShadow"/>
<feBlend mode="normal" in="SourceGraphic" in2="effect1_dropShadow" result="shape"/>
</filter>
<linearGradient id="paint0_linear" x1="3.80957" y1="5.83337" x2="3.80957" y2="20" gradientUnits="userSpaceOnUse">
<stop stop-color="white"/>
<stop offset="1" stop-color="#F0F0F0"/>
</linearGradient>
</defs>
</svg>
